src/assets/icons/real-estate/apartment.svg

<svg width="48" height="48" viewBox="0 0 48 48" fill="none" xmlns="http://www.w3.org/2000/svg">
<rect width="48" height="48" fill="white"/>
<path fill-rule="evenodd" clip-rule="evenodd" d="M30.5625 36.129H37.125V21.1613H30.5625V36.129ZM19.3125 36.129V33.7903C19.3125 33.5331 19.5225 33.3226 19.7812 33.3226C20.04 33.3226 20.25 33.5331 20.25 33.7903V36.129H19.3125ZM10.875 10.871H28.6875V20.2258V36.129H22.125V33.7903C22.125 32.5003 21.0731 31.4516 19.7812 31.4516C18.4884 31.4516 17.4375 32.5003 17.4375 33.7903V36.129H10.875V10.871ZM38.0625 19.2903C38.58 19.2903 39 19.7085 39 20.2258V37.0645C39 37.5818 38.58 38 38.0625 38H29.625H21.1875H18.375H9.9375C9.42 38 9 37.5818 9 37.0645V9.93548C9 9.41816 9.42 9 9.9375 9H29.625C30.1425 9 30.5625 9.41816 30.5625 9.93548V19.2903H33.375V17.4194C33.375 16.902 33.795 16.4839 34.3125 16.4839C34.83 16.4839 35.25 16.902 35.25 17.4194V19.2903H38.0625ZM14.3529 13.0132C14.3061 12.9758 14.2592 12.929 14.2123 12.901C14.1561 12.8635 14.0998 12.8355 14.0436 12.8168C13.9873 12.7887 13.9311 12.77 13.8748 12.7597C13.7529 12.7326 13.6217 12.7326 13.4998 12.7597C13.4436 12.77 13.3873 12.7887 13.3311 12.8168C13.2748 12.8355 13.2186 12.8635 13.1623 12.901C13.1154 12.929 13.0686 12.9758 13.0217 13.0132C12.9373 13.1068 12.8717 13.2097 12.8248 13.3219C12.7779 13.4342 12.7498 13.5558 12.7498 13.6774C12.7498 13.799 12.7779 13.9206 12.8248 14.0329C12.8717 14.1452 12.9373 14.2471 13.0217 14.3323C13.1154 14.4258 13.2186 14.4913 13.3311 14.5381C13.4436 14.5848 13.5654 14.6129 13.6873 14.6129C13.9404 14.6129 14.1748 14.5184 14.3529 14.3323C14.4373 14.2471 14.5029 14.1452 14.5498 14.0329C14.5967 13.9206 14.6248 13.799 14.6248 13.6774C14.6248 13.5558 14.5967 13.4342 14.5498 13.3219C14.5029 13.2003 14.4373 13.1068 14.3529 13.0132ZM17.4374 14.6129H18.3749C18.8924 14.6129 19.3124 14.1947 19.3124 13.6774C19.3124 13.1601 18.8924 12.7419 18.3749 12.7419H17.4374C16.9199 12.7419 16.4999 13.1601 16.4999 13.6774C16.4999 14.1947 16.9199 14.6129 17.4374 14.6129ZM21.1874 14.6129H22.1249C22.6424 14.6129 23.0624 14.1947 23.0624 13.6774C23.0624 13.1601 22.6424 12.7419 22.1249 12.7419H21.1874C20.6699 12.7419 20.2499 13.1601 20.2499 13.6774C20.2499 14.1947 20.6699 14.6129 21.1874 14.6129ZM13.0218 16.7552C12.853 16.932 12.7499 17.1761 12.7499 17.4194C12.7499 17.541 12.778 17.6626 12.8249 17.7748C12.8718 17.8871 12.9374 17.9891 13.0218 18.0835C13.1155 18.1677 13.2187 18.2332 13.3312 18.28C13.4437 18.3268 13.5655 18.3548 13.6874 18.3548C13.8093 18.3548 13.9312 18.3268 14.0437 18.28C14.1562 18.2332 14.2593 18.1677 14.353 18.0835C14.5312 17.9049 14.6249 17.671 14.6249 17.4194C14.6249 17.1761 14.5218 16.932 14.353 16.7552C14.0062 16.409 13.3687 16.409 13.0218 16.7552ZM17.4374 18.3548H18.3749C18.8924 18.3548 19.3124 17.9367 19.3124 17.4194C19.3124 16.902 18.8924 16.4839 18.3749 16.4839H17.4374C16.9199 16.4839 16.4999 16.902 16.4999 17.4194C16.4999 17.9367 16.9199 18.3548 17.4374 18.3548ZM21.1874 18.3548H22.1249C22.6424 18.3548 23.0624 17.9367 23.0624 17.4194C23.0624 16.902 22.6424 16.4839 22.1249 16.4839H21.1874C20.6699 16.4839 20.2499 16.902 20.2499 17.4194C20.2499 17.9367 20.6699 18.3548 21.1874 18.3548ZM14.3529 20.4971C14.2592 20.4129 14.1654 20.3474 14.0436 20.3006C13.8186 20.2062 13.5561 20.2062 13.3311 20.3006C13.2092 20.3474 13.1154 20.4129 13.0217 20.4971C12.9373 20.5906 12.8717 20.6935 12.8248 20.8058C12.7779 20.9181 12.7498 21.0397 12.7498 21.1613C12.7498 21.4129 12.8436 21.6468 13.0217 21.8255C13.1998 22.0023 13.4342 22.0968 13.6873 22.0968C13.8092 22.0968 13.9311 22.0771 14.0436 22.0219C14.1561 21.9752 14.2592 21.9097 14.3529 21.8255C14.5311 21.6468 14.6248 21.4129 14.6248 21.1613C14.6248 21.0397 14.5967 20.9181 14.5498 20.8058C14.5029 20.6935 14.4373 20.5906 14.3529 20.4971ZM17.4374 22.0968H18.3749C18.8924 22.0968 19.3124 21.6786 19.3124 21.1613C19.3124 20.644 18.8924 20.2258 18.3749 20.2258H17.4374C16.9199 20.2258 16.4999 20.644 16.4999 21.1613C16.4999 21.6786 16.9199 22.0968 17.4374 22.0968ZM21.1874 22.0968H22.1249C22.6424 22.0968 23.0624 21.6786 23.0624 21.1613C23.0624 20.644 22.6424 20.2258 22.1249 20.2258H21.1874C20.6699 20.2258 20.2499 20.644 20.2499 21.1613C20.2499 21.6786 20.6699 22.0968 21.1874 22.0968ZM14.3529 24.239C14.3061 24.2016 14.2592 24.1548 14.2123 24.1268C14.1561 24.0894 14.0998 24.0613 14.0436 24.0426C13.9873 24.0145 13.9311 23.9958 13.8748 23.9855C13.5654 23.921 13.2467 24.0239 13.0217 24.239C12.9373 24.3326 12.8717 24.4261 12.8248 24.5477C12.7779 24.66 12.7498 24.7816 12.7498 24.9032C12.7498 25.0248 12.7779 25.1465 12.8248 25.2587C12.8717 25.371 12.9373 25.4729 13.0217 25.5674C13.1154 25.6516 13.2186 25.7171 13.3311 25.7639C13.4436 25.8106 13.5654 25.8387 13.6873 25.8387C13.8092 25.8387 13.9311 25.8106 14.0436 25.7639C14.1561 25.7171 14.2592 25.6516 14.3529 25.5674C14.5311 25.3887 14.6248 25.1549 14.6248 24.9032C14.6248 24.7816 14.5967 24.66 14.5498 24.5477C14.5029 24.4355 14.4373 24.3326 14.3529 24.239ZM17.4374 25.8387H18.3749C18.8924 25.8387 19.3124 25.4205 19.3124 24.9032C19.3124 24.3859 18.8924 23.9677 18.3749 23.9677H17.4374C16.9199 23.9677 16.4999 24.3859 16.4999 24.9032C16.4999 25.4205 16.9199 25.8387 17.4374 25.8387ZM21.1874 25.8387H22.1249C22.6424 25.8387 23.0624 25.4205 23.0624 24.9032C23.0624 24.3859 22.6424 23.9677 22.1249 23.9677H21.1874C20.6699 23.9677 20.2499 24.3859 20.2499 24.9032C20.2499 25.4205 20.6699 25.8387 21.1874 25.8387ZM25.2093 14.3324C25.303 14.426 25.4062 14.4915 25.5187 14.5383C25.6312 14.585 25.753 14.6131 25.8749 14.6131C26.128 14.6131 26.3624 14.5186 26.5405 14.3324C26.6249 14.2473 26.6905 14.1453 26.7374 14.0331C26.7843 13.9208 26.8124 13.7992 26.8124 13.6776C26.8124 13.556 26.7843 13.4344 26.7374 13.3221C26.6905 13.2005 26.6249 13.106 26.5405 13.0134C26.4937 12.976 26.4468 12.9292 26.3999 12.9012C26.3437 12.8637 26.2874 12.8347 26.2312 12.817C26.1749 12.7889 26.1187 12.7702 26.0624 12.7599C25.9405 12.7328 25.8093 12.7328 25.6874 12.7599C25.6312 12.7702 25.5749 12.7889 25.5187 12.817C25.4624 12.8347 25.4062 12.8637 25.3499 12.9012C25.303 12.9292 25.2562 12.976 25.2093 13.0134C25.1249 13.106 25.0593 13.2099 25.0124 13.3221C24.9655 13.4344 24.9374 13.556 24.9374 13.6776C24.9374 13.7992 24.9655 13.9208 25.0124 14.0331C25.0593 14.1453 25.1249 14.2473 25.2093 14.3324ZM25.5183 18.2799C25.6308 18.3267 25.7527 18.3547 25.8745 18.3547C26.1277 18.3547 26.362 18.2603 26.5402 18.0835C26.6245 17.989 26.6902 17.887 26.737 17.7747C26.7933 17.6625 26.812 17.5409 26.812 17.4193C26.812 17.176 26.7089 16.9328 26.5402 16.7551C26.4464 16.6709 26.3527 16.6054 26.2308 16.5586C26.0058 16.4557 25.7433 16.4651 25.5183 16.5586C25.3964 16.6054 25.3027 16.6709 25.2089 16.7551C25.0402 16.9328 24.937 17.1667 24.937 17.4193C24.937 17.6718 25.0308 17.9057 25.2089 18.0835C25.3027 18.1676 25.4058 18.2331 25.5183 18.2799ZM25.5183 22.0218C25.6308 22.078 25.7527 22.0967 25.8745 22.0967C25.9964 22.0967 26.1183 22.078 26.2308 22.0218C26.3433 21.9751 26.4464 21.9096 26.5402 21.8254C26.7183 21.6476 26.812 21.4138 26.812 21.1612C26.812 21.0396 26.7839 20.918 26.737 20.8057C26.6902 20.6935 26.6245 20.5906 26.5402 20.497C26.4464 20.4128 26.3527 20.3473 26.2308 20.3006C26.0058 20.207 25.7433 20.207 25.5183 20.3006C25.3964 20.3473 25.3027 20.4128 25.2089 20.497C25.1245 20.5906 25.0589 20.6935 25.012 20.8057C24.9652 20.918 24.937 21.0396 24.937 21.1612C24.937 21.4138 25.0308 21.6476 25.2089 21.8254C25.3027 21.9096 25.4058 21.9751 25.5183 22.0218ZM25.5183 25.7638C25.6308 25.8106 25.7527 25.8386 25.8745 25.8386C26.1277 25.8386 26.362 25.7441 26.5402 25.5673C26.7183 25.3896 26.812 25.1557 26.812 24.9031C26.812 24.7815 26.7933 24.6599 26.737 24.5476C26.6902 24.4354 26.6245 24.3325 26.5402 24.2389C26.4464 24.1547 26.3433 24.0893 26.2308 24.0425C26.062 23.9676 25.8745 23.9489 25.687 23.9864C25.6308 23.9957 25.5745 24.0144 25.5183 24.0425C25.462 24.0612 25.4058 24.0893 25.3495 24.1267C25.3027 24.1547 25.2558 24.2015 25.2089 24.2389C25.1245 24.3325 25.0589 24.4354 25.012 24.5476C24.9652 24.6599 24.937 24.7815 24.937 24.9031C24.937 25.1557 25.0308 25.3896 25.2089 25.5673C25.3027 25.6515 25.4058 25.717 25.5183 25.7638ZM13.3308 27.7846C13.2089 27.8314 13.1152 27.8969 13.0214 27.9811C12.8527 28.1579 12.7495 28.402 12.7495 28.6453C12.7495 28.7669 12.7777 28.8885 12.8245 29.0007C12.8714 29.113 12.937 29.215 13.0214 29.3094C13.1152 29.3936 13.2183 29.4591 13.3308 29.5059C13.4433 29.5611 13.5652 29.5807 13.687 29.5807C13.8089 29.5807 13.9308 29.5611 14.0433 29.5059C14.1558 29.4591 14.2589 29.3936 14.3527 29.3094C14.5308 29.1308 14.6245 28.8969 14.6245 28.6453C14.6245 28.402 14.5214 28.1579 14.3527 27.9811C14.0902 27.7191 13.6777 27.6349 13.3308 27.7846ZM17.4374 29.5806H18.3749C18.8924 29.5806 19.3124 29.1625 19.3124 28.6452C19.3124 28.1278 18.8924 27.7097 18.3749 27.7097H17.4374C16.9199 27.7097 16.4999 28.1278 16.4999 28.6452C16.4999 29.1625 16.9199 29.5806 17.4374 29.5806ZM21.1874 29.5806H22.1249C22.6424 29.5806 23.0624 29.1625 23.0624 28.6452C23.0624 28.1278 22.6424 27.7097 22.1249 27.7097H21.1874C20.6699 27.7097 20.2499 28.1278 20.2499 28.6452C20.2499 29.1625 20.6699 29.5806 21.1874 29.5806ZM25.2093 29.3094C25.303 29.3935 25.4062 29.459 25.5187 29.5058C25.6312 29.5619 25.753 29.5806 25.8749 29.5806C25.9968 29.5806 26.1187 29.5619 26.2312 29.5058C26.3437 29.459 26.4468 29.3935 26.5405 29.3094C26.7187 29.1316 26.8124 28.8977 26.8124 28.6452C26.8124 28.4019 26.7093 28.1587 26.5405 27.981C26.1937 27.6348 25.5562 27.6348 25.2093 27.981C25.0405 28.1587 24.9374 28.4019 24.9374 28.6452C24.9374 28.7668 24.9655 28.8884 25.0124 29.0006C25.0593 29.1129 25.1249 29.2149 25.2093 29.3094ZM32.0808 23.8928C32.1933 23.9396 32.3152 23.9676 32.437 23.9676C32.5589 23.9676 32.6808 23.9396 32.7933 23.8928C32.9058 23.846 33.0089 23.7806 33.1027 23.6964C33.2808 23.5186 33.3745 23.2847 33.3745 23.0322C33.3745 22.7889 33.2714 22.5457 33.1027 22.368C33.0089 22.2838 32.9058 22.2183 32.7933 22.1715C32.6245 22.0967 32.437 22.078 32.2495 22.1154C32.1933 22.1247 32.137 22.1435 32.0808 22.1715C32.0245 22.1902 31.9683 22.2183 31.912 22.2557C31.8652 22.2838 31.8183 22.3306 31.7714 22.368C31.6027 22.5457 31.4995 22.7889 31.4995 23.0322C31.4995 23.2847 31.5933 23.5186 31.7714 23.6964C31.8652 23.7806 31.9683 23.846 32.0808 23.8928ZM31.7718 27.4384C31.8655 27.5226 31.9687 27.5881 32.0812 27.6348C32.1937 27.6816 32.3155 27.7097 32.4374 27.7097C32.5593 27.7097 32.6812 27.6816 32.7937 27.6348C32.9062 27.5881 33.0093 27.5226 33.103 27.4384C33.1874 27.3439 33.253 27.2419 33.2999 27.1297C33.3468 27.0174 33.3749 26.8958 33.3749 26.7742C33.3749 26.6526 33.3468 26.531 33.2999 26.4187C33.253 26.3065 33.1874 26.2035 33.103 26.11C33.0562 26.0726 33.0093 26.0258 32.9624 25.9977C32.9062 25.9603 32.8499 25.9323 32.7937 25.9135C32.7374 25.8855 32.6812 25.8668 32.6155 25.8574C32.3155 25.7919 31.9968 25.8948 31.7718 26.11C31.6874 26.2035 31.6218 26.2971 31.5749 26.4187C31.528 26.531 31.4999 26.6526 31.4999 26.7742C31.4999 26.8958 31.528 27.0174 31.5749 27.1297C31.6218 27.2419 31.6874 27.3439 31.7718 27.4384ZM31.7718 31.1803C31.8655 31.2645 31.9687 31.33 32.0812 31.3768C32.1937 31.4235 32.3155 31.4516 32.4374 31.4516C32.5593 31.4516 32.6812 31.4235 32.7937 31.3768C32.9062 31.33 33.0093 31.2645 33.103 31.1803C33.1874 31.0858 33.253 30.9839 33.2999 30.8716C33.3562 30.7594 33.3749 30.6377 33.3749 30.5161C33.3749 30.2729 33.2718 30.0297 33.103 29.8519C32.8405 29.5994 32.428 29.5058 32.0812 29.6555C31.9593 29.7023 31.8655 29.7677 31.7718 29.8519C31.603 30.0297 31.4999 30.2729 31.4999 30.5161C31.4999 30.6377 31.528 30.7594 31.5749 30.8716C31.6218 30.9839 31.6874 31.0858 31.7718 31.1803ZM34.5843 23.6965C34.7624 23.8733 34.9968 23.9677 35.2499 23.9677C35.3718 23.9677 35.4937 23.9397 35.6062 23.8929C35.7187 23.8461 35.8218 23.7806 35.9155 23.6965C35.9999 23.602 36.0655 23.5 36.1124 23.3877C36.1593 23.2755 36.1874 23.1539 36.1874 23.0323C36.1874 22.9106 36.1593 22.789 36.1124 22.6768C36.0655 22.5552 35.9999 22.4616 35.9155 22.3681C35.6905 22.1529 35.3718 22.05 35.0718 22.1155C35.0062 22.1248 34.9499 22.1435 34.8937 22.1716C34.8374 22.1903 34.7812 22.2184 34.7249 22.2558C34.678 22.2839 34.6312 22.3306 34.5843 22.3681C34.4155 22.5458 34.3124 22.789 34.3124 23.0323C34.3124 23.1539 34.3405 23.2755 34.3874 23.3877C34.4343 23.5 34.4999 23.602 34.5843 23.6965ZM34.5843 27.4384C34.7624 27.6152 34.9968 27.7097 35.2499 27.7097C35.3718 27.7097 35.4937 27.6816 35.6062 27.6348C35.7187 27.5881 35.8218 27.5226 35.9155 27.4384C35.9999 27.3439 36.0655 27.2419 36.1124 27.1297C36.1593 27.0174 36.1874 26.8958 36.1874 26.7742C36.1874 26.6526 36.1593 26.531 36.1124 26.4187C36.0655 26.3065 35.9999 26.2035 35.9155 26.11C35.653 25.8481 35.2312 25.7639 34.8937 25.9135C34.7718 25.9603 34.678 26.0258 34.5843 26.11C34.4999 26.2035 34.4343 26.3065 34.3874 26.4187C34.3405 26.531 34.3124 26.6526 34.3124 26.7742C34.3124 26.8958 34.3405 27.0174 34.3874 27.1297C34.4343 27.2419 34.4999 27.3439 34.5843 27.4384ZM34.5843 31.1803C34.678 31.2645 34.7812 31.33 34.8937 31.3768C35.0062 31.4235 35.128 31.4516 35.2499 31.4516C35.3718 31.4516 35.4937 31.4235 35.6062 31.3768C35.7187 31.33 35.8218 31.2645 35.9155 31.1803C35.9999 31.0858 36.0655 30.9839 36.1124 30.8716C36.1593 30.7594 36.1874 30.6377 36.1874 30.5161C36.1874 30.3945 36.1593 30.2729 36.1124 30.1606C36.0655 30.039 35.9999 29.9455 35.9155 29.8519C35.8218 29.7677 35.728 29.7023 35.6062 29.6555C35.3812 29.5619 35.1187 29.5619 34.8937 29.6555C34.7812 29.7023 34.678 29.7677 34.5843 29.8519C34.4155 30.0297 34.3124 30.2729 34.3124 30.5161C34.3124 30.6377 34.3405 30.7594 34.3874 30.8716C34.4343 30.9839 34.4999 31.0858 34.5843 31.1803Z" fill="#253238"/>
</svg>

<svg width="48" height="48" viewBox="0 0 48 48" fill="none" xmlns="http://www.w3.org/2000/svg"><path fill-rule="evenodd" clip-rule="evenodd" d="M30.563 36.129h6.562V21.161h-6.563V36.13zm-11.25 0V33.79a.469.469 0 01.937 0v2.339h-.938zm-8.438-25.258h17.813V36.129h-6.563V33.79a2.344 2.344 0 00-4.688 0v2.339h-6.562V10.871zm27.188 8.42c.517 0 .937.418.937.935v16.839c0 .517-.42.935-.938.935H9.938A.936.936 0 019 37.065V9.935C9 9.418 9.42 9 9.938 9h19.687c.517 0 .938.418.938.935v9.355h2.812v-1.87c0-.518.42-.936.938-.936.517 0 .937.418.937.935v1.871h2.813zm-23.71-6.278c-.047-.037-.094-.084-.14-.112a.707.707 0 00-.17-.084.875.875 0 00-.713 0 .707.707 0 00-.168.084c-.047.028-.093.075-.14.112-.085.094-.15.197-.197.309a.93.93 0 00-.075.355.93.93 0 00.075.356.935.935 0 00.197.3.943.943 0 00.31.205.936.936 0 00.355.075.935.935 0 00.862-.58.93.93 0 00.076-.356.93.93 0 00-.075-.355.966.966 0 00-.197-.309zm3.084 1.6h.938a.936.936 0 100-1.871h-.938a.936.936 0 100 1.87zm3.75 0h.938a.936.936 0 100-1.871h-.938a.936.936 0 100 1.87zm-8.165 2.142a.98.98 0 00-.272.664c0 .122.028.244.075.356.047.112.112.214.197.309.094.084.197.15.31.196a.934.934 0 00.355.075.935.935 0 00.357-.075c.112-.047.215-.112.309-.197a.927.927 0 00.272-.664.98.98 0 00-.272-.664c-.347-.346-.984-.346-1.331 0zm4.415 1.6h.938a.936.936 0 100-1.871h-.938a.936.936 0 100 1.87zm3.75 0h.938a.936.936 0 100-1.871h-.938a.936.936 0 100 1.87zm-6.834 2.142a.968.968 0 00-.31-.196.932.932 0 00-.712 0 .968.968 0 00-.31.196c-.084.094-.15.197-.196.309a.93.93 0 00.197 1.02.933.933 0 00.665.27.8.8 0 00.357-.074 1.08 1.08 0 00.309-.196.928.928 0 00.197-1.02 1.079 1.079 0 00-.197-.309zm3.084 1.6h.938a.936.936 0 100-1.871h-.938a.936.936 0 100 1.87zm3.75 0h.938a.936.936 0 100-1.871h-.938a.936.936 0 100 1.87zm-6.834 2.142c-.047-.037-.094-.084-.14-.112a.71.71 0 00-.17-.084.63.63 0 00-.168-.058.959.959 0 00-.853.254.966.966 0 00-.197.309.93.93 0 00-.075.355c0 .122.028.244.075.356.047.112.112.214.197.308.093.085.197.15.31.197a.936.936 0 00.355.075.936.936 0 00.357-.075c.112-.047.215-.112.309-.197a.928.928 0 00.197-1.02 1.081 1.081 0 00-.197-.308zm3.084 1.6h.938a.936.936 0 100-1.871h-.938a.936.936 0 100 1.87zm3.75 0h.938a.936.936 0 100-1.871h-.938a.936.936 0 100 1.87zm4.022-11.507c.094.094.197.16.31.206a.936.936 0 00.356.075.904.904 0 00.666-.28.934.934 0 00.196-.3.93.93 0 00.075-.355.93.93 0 00-.075-.356.955.955 0 00-.196-.309c-.047-.037-.094-.084-.141-.112a.671.671 0 00-.169-.084.875.875 0 00-.713 0 .672.672 0 00-.168.084c-.047.028-.094.075-.14.112-.085.093-.15.197-.198.31a.93.93 0 00-.075.355.93.93 0 00.075.355.934.934 0 00.197.3zm.31 3.948a.934.934 0 001.021-.197c.085-.094.15-.196.197-.308a.782.782 0 00.075-.356.983.983 0 00-.272-.664.969.969 0 00-.31-.196.898.898 0 00-.712 0 .969.969 0 00-.31.196.965.965 0 00-.271.664c0 .253.094.487.272.665.094.084.197.15.31.196zm0 3.742a.787.787 0 00.356.075.787.787 0 00.356-.075c.112-.047.215-.112.31-.197a.925.925 0 00.196-1.02 1.081 1.081 0 00-.197-.308.967.967 0 00-.31-.196.939.939 0 00-.712 0 .967.967 0 00-.31.196c-.083.094-.15.197-.196.309a.925.925 0 00.197 1.02c.094.084.197.15.31.196zm0 3.742a.934.934 0 001.021-.197.925.925 0 00.272-.664.783.783 0 00-.075-.355 1.081 1.081 0 00-.197-.31 1.084 1.084 0 00-.31-.195.897.897 0 00-.543-.057.594.594 0 00-.169.056.711.711 0 00-.169.085c-.046.028-.093.075-.14.112-.084.093-.15.196-.197.309a.925.925 0 00.197 1.02c.094.084.197.149.31.196zm-12.188 2.02a.969.969 0 00-.31.197.98.98 0 00-.272.664.93.93 0 00.075.356c.047.112.113.214.197.308.094.085.197.15.31.197a.8.8 0 00.356.075.8.8 0 00.356-.075c.113-.047.216-.112.31-.197a.928.928 0 00.271-.664.98.98 0 00-.271-.664.938.938 0 00-1.022-.196zm4.106 1.797h.938a.936.936 0 100-1.871h-.938a.936.936 0 100 1.87zm3.75 0h.938a.936.936 0 100-1.871h-.938a.936.936 0 100 1.87zm4.022-.272c.094.084.197.15.31.197a.788.788 0 00.356.075.788.788 0 00.356-.075c.113-.047.216-.113.31-.197a.925.925 0 00.271-.664.982.982 0 00-.271-.664c-.347-.346-.985-.346-1.332 0a.982.982 0 00-.272.664c0 .122.028.243.075.356.047.112.113.214.197.308zm6.872-5.416a.934.934 0 00.356.075.935.935 0 00.356-.075c.113-.047.216-.112.31-.197a.925.925 0 00.271-.664.983.983 0 00-.271-.664 1.084 1.084 0 00-.31-.196.899.899 0 00-.544-.057.597.597 0 00-.168.057.711.711 0 00-.169.084c-.047.028-.094.075-.14.112a.983.983 0 00-.272.664c0 .253.093.487.271.664.094.085.197.15.31.197zm-.31 3.545c.095.085.198.15.31.197a.934.934 0 00.356.075.935.935 0 00.357-.075 1.08 1.08 0 00.309-.197c.084-.094.15-.196.197-.308a.93.93 0 00.075-.356.93.93 0 00-.075-.355 1.08 1.08 0 00-.197-.309c-.047-.037-.094-.084-.14-.112a.714.714 0 00-.17-.085.945.945 0 00-1.022.197.965.965 0 00-.196.309.93.93 0 00-.075.355.93.93 0 00.075.356c.047.112.112.214.197.308zm0 3.742c.095.085.198.15.31.197a.936.936 0 00.356.075.936.936 0 00.357-.075c.112-.047.215-.112.309-.197.084-.094.15-.196.197-.308a.782.782 0 00.075-.356.983.983 0 00-.272-.664.955.955 0 00-1.022-.197.968.968 0 00-.31.197.983.983 0 00-.271.664c0 .122.028.243.075.356.047.112.112.214.197.308zm2.813-7.483a.933.933 0 001.022.196c.113-.047.216-.112.31-.197.084-.094.15-.196.196-.308a.928.928 0 00.075-.356.929.929 0 00-.075-.355.965.965 0 00-.197-.309.945.945 0 00-1.021-.196.711.711 0 00-.17.084c-.046.028-.093.075-.14.112a.982.982 0 00-.272.664c0 .122.029.244.075.356.047.112.113.214.197.308zm0 3.741a.933.933 0 001.022.197 1.08 1.08 0 00.31-.197c.084-.094.15-.196.196-.308a.93.93 0 00.075-.356.93.93 0 00-.075-.355 1.08 1.08 0 00-.197-.309.941.941 0 00-1.021-.197.968.968 0 00-.31.197 1.08 1.08 0 00-.197.309.93.93 0 00-.075.355.93.93 0 00.075.356c.047.112.113.214.197.308zm0 3.742c.094.085.197.15.31.197a.936.936 0 00.356.075.936.936 0 00.356-.075c.113-.047.216-.112.31-.197.084-.094.15-.196.196-.308a.929.929 0 00.075-.356.93.93 0 00-.075-.355.966.966 0 00-.197-.31.968.968 0 00-.309-.195.939.939 0 00-.712 0 1.083 1.083 0 00-.31.196.983.983 0 00-.272.664c0 .122.029.243.075.356.047.112.113.214.197.308z" fill="#253238"/></svg>
